X:1
T:Copperplate, The
R:reel
M:4/4
L:1/8
K:G
G2dG BGdG|~G2dc BAGB|A2eA cAeA|~A2ed cAFA|
G2dG BGdG|~G2dc BAGB|ABcd efge|1 aged cAFA:|2 aged ^cdef|]
|:~g3f g2ef|gedc BAG2|eaag agea|aged ^cdef|
~g3f g2ef|gedc BAGB|ABcd efge|1 aged ^cdef:|2 aged cAFA|]
</abc>
